X: 37080
T: Silver Spire, The
R: reel
M: 4/4
K: Dmajor
|:FE|D2 FE DFAc|dcde fdAF|G2BG F2AF|EDEF GECE|
D2 FE DFAc|dcde fdAF|G2BG F2AF|EDEF D2:|
|:CB,|A,B,CD EFGF|EDEF GABc|dBBA Bcde|f2gf e2A2|
d2fd c2ec|dcdA BAFD|G2BG F2AF|EDEF D2:|

